X:1
T:Title
%%score { ( 1 4 5 ) | ( 2 3 ) }
L:1/8
M:4/4
K:D
V:1 treble nm="Grand Piano"
V:4 treble 
V:5 treble 
V:2 bass 
V:3 bass 
V:1
 z4 z2[Q:1/4=100] [FA]2 | [FA]2 [Fd]2 F2 A2 | AG .[A,CG]2 [A,CG]2 [Gc]2 | %3
 [Ge]2 [Gc]2 [CB][CA][C^G][CA] |[M:3/4] B4 z2 |[M:1/4] [FA]2 |[M:4/4] [FA]2 [Fd]2 F2 A2 | %7
 EFGA B2 c2 | edcB .[CA]2 [G,C]-[G,CE] |[M:7/8] D-D-D- D- D3 |[M:1/4] A2 | %11
[M:4/4] [Fd]2 [FA]2 [FA]2 [DA]2 | [DB]2 [DF]2 [DF]2 [DF]2 | z2[K:bass] z[K:treble] A [GB]2 [Gc]2 | %14
[M:3/4] d2- [Gd-]2 [Fd]2 |[M:1/4] [FA]2 |[M:4/4] [Fd]2 [DFA]2 F2 A2 | EFGA B2 c2 | %18
 edcB .[CA]2 [G,C]-[G,CE] |[M:3/4] D6 |] %20
V:2
 z4 z2 [D,D]2 | [D,D]2 [D,A,]2 [D,A,D]2 [F,A,D]2 | [E,A,C]2 z F E,2 [A,,A,]2 | %3
 [C,A,]2 [E,A,]2 [A,,A,][A,,A,][A,,A,][A,,A,] |[M:3/4] [D,^G,]2 [D,G,]2 [D,A,]2 |[M:1/4] [D,D]2 | %6
[M:4/4] [D,D]2 [D,A,]2 F,2 A,2 | E,F,G,A, B,2[K:treble] C2 | [A,CG]2 [A,CG]2[K:bass] z G A,,2 | %9
[M:7/8] [D,F,A,]2 [D,G,]2 [D,F,]3 |[M:1/4] A,2 |[M:4/4] [D,A,]2 [D,D]2 [D,D]2 [D,F,]2 | %12
 [B,,F,]2 [B,,B,]2 [B,,B,]2 [B,,B,]2 | [A,C]3 [A,C] [E,A,]2 [A,,A,]2 | %14
[M:3/4] [D,A,]2 [D,B,]2 [D,A,]2 |[M:1/4] [D,D]2 |[M:4/4] [D,A,]2 D,2 F,2 A,2 | %17
 E,F,G,A, B,2[K:treble] C2 | [A,CG]2 [A,CG]2[K:bass] z G A,,2 |[M:3/4] [D,F,A,]2 [D,G,]2 [D,F,]2 |] %20
V:3
 x8 | x8 | z2 A,,2 z4 | x8 |[M:3/4] x6 |[M:1/4] x2 |[M:4/4] x8 | x6[K:treble] x2 | %8
 z4[K:bass] [A,,G,]2 z2 |[M:7/8] x7 |[M:1/4] x2 |[M:4/4] x8 | x8 | x8 |[M:3/4] x6 |[M:1/4] x2 | %16
[M:4/4] x8 | x6[K:treble] x2 | z4[K:bass] [A,,G,]2 z2 |[M:3/4] x6 |] %20
V:4
 x8 | x8 | x8 | x8 |[M:3/4] =F2 F2 [^FA]2 |[M:1/4] x2 |[M:4/4] x8 | x8 | z4 z2 .F2 | %9
[M:7/8] z2 B,2 A,3 |[M:1/4] x2 |[M:4/4] x8 | x8 | G4[K:bass][K:treble] z4 |[M:3/4] F2 z2 z2 | %15
[M:1/4] x2 |[M:4/4] x8 | x8 | z4 z2 .F2 |[M:3/4] z2 B,2 A,2 |] %20
V:5
 x8 | x8 | x8 | x8 |[M:3/4] x6 |[M:1/4] x2 |[M:4/4] x8 | x8 | x8 |[M:7/8] x7 |[M:1/4] x2 | %11
[M:4/4] x8 | x8 | z2[K:bass] A,,2[K:treble] z4 |[M:3/4] x6 |[M:1/4] x2 |[M:4/4] x8 | x8 | x8 | %19
[M:3/4] x6 |] %20

